X:234
T:Clear the Tracks
C:Chris Thile
N: ("Stealing Second") Transcribed by Steve Keating
L:1/8
Q:1/4=280
M:4/4
K:A
"Transcribed by""Steve Keating"z8 | z2 de =ge g2 | "First Break""A"=ga z2 a4 | 
a2 z=c' a=g ed | e=g ^d=d =cA dc | A2 A2 zD E=F | "D"Fd zF d2 zd | "E"e=g ^d=d =cA dc | 
"A"A2 =GA z2 AA | A2 c2 d2 ^d2 | ^de e=g de eg | ^de e=g de ed | e=g za g^d =d=c | 
A2 A2 zD E=F | "D"Fd zF d2 zd | "E"e=g ^d=d =cA dc | "A"A2 =GA z2 ^G2 | =G2 G2 zD E=F | 
"D"Fd zF d2 zd | "E"e=g ^d=d =c^c A2 | "G"=gd B=G "D"FA df | "A"e2 e2 zD E=F | 
"D"Fd zF d2 zd | "E"e=g ^d=d =c^c A2 | [fd][ge] [ge][ge] [ge][ge] [ge][ge] | [g2e2] [g2e2] zD E=F | 
"D"Fd zF d2 zd | "E"e=g ^d=d =c^c A2 | "G"=gd B=G "D"FA df | "A"e2 e2 zD E=F | 
"D"Fd zF d2 zd | "E"e=g ^d=d =c^c A2 | [fd][ge] [ge][ge] [ge][ge] [ge][ge] | [g2e2] de =ge g2 | 
"A"=ga z2 a4 | a2 z=c' a=g ed | e=g ^d=d =cA dA | =c^c =c^c AB A=G | "D"A=G =F^F d[=cE] cc | 
"E"Ge z{G}F d2 =c2 | "A"=c^c AB A=G A^G | =G2 G2 zD E=F | "D"Fd zF d2 F2 | "C"=c=G E=C "G"B,D GB | 
"A"A8 | "Second Break"A=c dc d2 dc | "A"d2 d=c dc Ac | A=G A=c A2 cG | Af zA f2 zB | 
=gB Az fA =G2 | ed zF d2 =c^c | "D"d2 zc d^d e=g | "E"e^d ed =dA =c^c | "A"AE =GA =c^c AG | 
A2 E2 =G2 ^G2 | AG A^A =A_B =B_B | B=c Bc ^c=c ^cd | cd ^d=d ^de fa | =gf e=f ^f=f ec | 
"D"d2 D2 df af | "E"ad' b=c' ae =ga | "A"ed =cA dA c^c | A[=g^d] e2 [f2=d2] =c^c | 
"D"A=G =F^F dF GG | e=G AA fA B=g | "G"B=g BA "D"fe =Ge | "A"z2 =GF d2 =c^c | 
"D"d2 dc d^d e=g | e^d =c^c A=G =F^F | {=G}"E"^GB ed eg b2 | e'2 e'4 e2 | "D"fd' ff d'f =gg | 
e'=g aa f'a b=g' | "G"zb aa "D"f'a =ge' | "A"=gf fd' fe =c'2 | "D"d'2 d'b ab =c'b | 
a=g =f^f de fd | "E"eB dB Ad =G^G | E2 E2 =G2 ^G2 | "A"A=c d^d ed =dc | A=c de =g^d =dc | 
A=c de a^d =dc | A=c d^d =c'd =dc | "D"d2 e=f ^fd ed | "E"Bc dB =cB A=G | "A"A=c ^c2 ed =c^c | 
=c^c A=G AG E=F | "D"Fd zF d2 D2 | "C"=c=G E=C "G"B,D GB | "A"A2 ^de de d=d | 
=c^c A=G E2 A2 | z8 | z8 | z8 | z8 | z8 | z8 | 
 

